MonoIcons/scalable/status/dialog-error-symbolic.svg

<?xml version="1.0" encoding="UTF-8"?>
<svg height="16px" viewBox="0 0 16 16" width="16px" xmlns="http://www.w3.org/2000/svg">
    <path d="m 8 1 c -3.871094 0 -7 3.128906 -7 7 s 3.128906 7 7 7 s 7 -3.128906 7 -7 s -3.128906 -7 -7 -7 z m -4 6 h 8 v 2 h -8 z m 0 0" fill="#2e3436"/>
</svg>

<svg width="16" height="16" viewBox="0 0 16 16" fill="none" xmlns="http://www.w3.org/2000/svg">
<path d="M8 1C4.12891 1 1 4.12891 1 8C1 11.8711 4.12891 15 8 15C11.8711 15 15 11.8711 15 8C15 4.12891 11.8711 1 8 1ZM4 7H12V9H4V7Z" fill="#2E3436"/>
</svg>
